raws/icons/decors/heart-border-icon.svg

<svg width="23" height="21" viewBox="0 0 23 21" fill="none" xmlns="http://www.w3.org/2000/svg">
<path d="M0 7.44701C0 6.43886 0.165865 5.48777 0.497596 4.59375C0.829327 3.69973 1.29006 2.91033 1.87981 2.22554C2.46955 1.54076 3.16066 0.99864 3.95312 0.599184C4.76402 0.199728 5.63021 0 6.55168 0C7.54688 0 8.47296 0.233015 9.32993 0.699049C10.1869 1.16508 10.9103 1.78804 11.5 2.56793C12.0897 1.78804 12.8131 1.16508 13.6701 0.699049C14.527 0.233015 15.4531 0 16.4483 0C17.3698 0 18.236 0.199728 19.0469 0.599184C19.8393 0.99864 20.5304 1.54076 21.1202 2.22554C21.7099 2.91033 22.1707 3.69973 22.5024 4.59375C22.8341 5.48777 23 6.43886 23 7.44701C23 8.26495 22.8664 9.05435 22.5992 9.81522C22.3319 10.5761 21.9864 11.3084 21.5625 12.0122C21.1386 12.7351 20.6456 13.4198 20.0835 14.0666C19.5214 14.7133 18.9455 15.3315 18.3558 15.9212C17.1394 17.1005 15.9277 18.123 14.7206 18.9885C13.5134 19.8539 12.5966 20.4769 11.97 20.8573C11.8225 20.9524 11.6659 21 11.5 21C11.3341 21 11.1775 20.9524 11.03 20.8573C10.4034 20.4579 9.48658 19.8302 8.27945 18.9742C7.07232 18.1182 5.86058 17.1005 4.64423 15.9212C4.05449 15.3315 3.47857 14.7133 2.91647 14.0666C2.35437 13.4198 1.86138 12.7351 1.4375 12.0122C1.01362 11.3084 0.668069 10.5761 0.400841 9.81522C0.133614 9.05435 0 8.26495 0 7.44701ZM6.55168 1.82609C5.28005 1.82609 4.16506 2.36345 3.20673 3.43818C2.2484 4.51291 1.76923 5.84918 1.76923 7.44701C1.76923 8.01766 1.87059 8.60734 2.07332 9.21603C2.27604 9.82473 2.57091 10.4429 2.95793 11.0707C3.32652 11.6793 3.75962 12.2785 4.25721 12.8682C4.75481 13.4579 5.28926 14.038 5.86058 14.6087C6.8742 15.5788 7.90164 16.449 8.94291 17.2194C9.98417 17.9898 10.8365 18.5842 11.5 19.0027C12.1635 18.5842 13.0158 17.9898 14.0571 17.2194C15.0984 16.449 16.1258 15.5788 17.1394 14.6087C17.7107 14.0571 18.2452 13.4817 18.7428 12.8825C19.2404 12.2833 19.6735 11.6793 20.0421 11.0707C20.4291 10.4429 20.724 9.82473 20.9267 9.21603C21.1294 8.60734 21.2308 8.01766 21.2308 7.44701C21.2308 5.84918 20.7516 4.51291 19.7933 3.43818C18.8349 2.36345 17.72 1.82609 16.4483 1.82609C15.5821 1.82609 14.7758 2.08288 14.0294 2.59647C13.2831 3.11005 12.7071 3.80435 12.3017 4.67935C12.228 4.85054 12.1174 4.97894 11.97 5.06454C11.8225 5.15014 11.6659 5.19293 11.5 5.19293C11.3341 5.19293 11.1775 5.15014 11.03 5.06454C10.8826 4.97894 10.772 4.85054 10.6983 4.67935C10.2929 3.80435 9.71695 3.11005 8.97055 2.59647C8.22416 2.08288 7.41787 1.82609 6.55168 1.82609Z" fill="white"/>
</svg>

<svg width="23" height="21" fill="none" xmlns="http://www.w3.org/2000/svg"><path d="M0 7.447c0-1.008.166-1.96.498-2.853A7.694 7.694 0 011.88 2.226 6.686 6.686 0 013.953.599C4.764.2 5.63 0 6.552 0c.995 0 1.921.233 2.778.699a6.71 6.71 0 012.17 1.869A6.71 6.71 0 0113.67.699 5.723 5.723 0 0116.448 0c.922 0 1.788.2 2.599.6.792.399 1.483.94 2.073 1.626a7.694 7.694 0 011.382 2.368c.332.894.498 1.845.498 2.853 0 .818-.134 1.607-.4 2.368-.268.761-.614 1.493-1.038 2.197a13.667 13.667 0 01-1.479 2.055 36.277 36.277 0 01-1.727 1.854 32.258 32.258 0 01-3.635 3.067c-1.208.866-2.124 1.489-2.751 1.87a.853.853 0 01-.94 0 73.806 73.806 0 01-2.75-1.884 31.096 31.096 0 01-3.636-3.053 36.26 36.26 0 01-1.728-1.854 13.665 13.665 0 01-1.478-2.055A11.879 11.879 0 01.4 9.815C.134 9.055 0 8.265 0 7.447zm6.552-5.62c-1.272 0-2.387.536-3.345 1.611-.959 1.075-1.438 2.411-1.438 4.009 0 .57.102 1.16.304 1.769a8.92 8.92 0 00.885 1.855c.369.608.802 1.207 1.3 1.797.497.59 1.031 1.17 1.603 1.74 1.013.97 2.04 1.841 3.082 2.611 1.041.77 1.893 1.365 2.557 1.784.664-.419 1.516-1.013 2.557-1.784a31.958 31.958 0 003.082-2.61 21.432 21.432 0 001.604-1.726c.497-.6.93-1.204 1.3-1.812a8.92 8.92 0 00.884-1.855 5.587 5.587 0 00.304-1.769c0-1.598-.48-2.934-1.438-4.009-.958-1.075-2.073-1.612-3.345-1.612-.866 0-1.672.257-2.419.77-.746.514-1.322 1.208-1.727 2.083a.792.792 0 01-.332.386.921.921 0 01-.94 0 .792.792 0 01-.332-.386c-.405-.875-.981-1.569-1.727-2.083-.747-.513-1.553-.77-2.42-.77z" fill="#fff"/></svg>
